X:18
T:Brose and Butter
R:slip jig
C:traditional
B:Bremner's Collections, 1757
N:melodic code 3b15 3b12  (315 312)
Z:Paul Stewart Cranford (P.S.C.), <http://www.cranfordpub.com>
M:9/8
Q:333
K:Aminor
cde AcA AcA|cde AcA TB2 G|cde AcA ABc|TB2 G Gge dBG:|
|:cde ege ege|cde ege dBG|cde ege e^fg|T^f2 d dge dBG:|
